symbols/web/calculate/materialsymbolssharp/calculate_wght200grad200fill1_24px.svg

<svg xmlns="http://www.w3.org/2000/svg" height="24" width="24"><path d="M6.25 9.05H11.1V7.75H6.25ZM13.15 17.25H18V15.95H13.15ZM13.15 14.7H18V13.4H13.15ZM8.05 18H9.35V15.95H11.4V14.65H9.35V12.6H8.05V14.65H6V15.95H8.05ZM14.15 10.75 15.55 9.35 17 10.75 17.925 9.85 16.475 8.4 17.925 6.95 17 6.025 15.55 7.475 14.15 6.025 13.225 6.95 14.675 8.4 13.225 9.85ZM3.2 20.8V3.2H20.8V20.8Z"/></svg>

<svg xmlns="http://www.w3.org/2000/svg" height="24" width="24"><path d="M6.25 9.05h4.85v-1.3H6.25Zm6.9 8.2H18v-1.3h-4.85Zm0-2.55H18v-1.3h-4.85ZM8.05 18h1.3v-2.05h2.05v-1.3H9.35V12.6h-1.3v2.05H6v1.3h2.05Zm6.1-7.25 1.4-1.4 1.45 1.4.925-.9-1.45-1.45 1.45-1.45L17 6.025l-1.45 1.45-1.4-1.45-.925.925 1.45 1.45-1.45 1.45ZM3.2 20.8V3.2h17.6v17.6Z"/></svg>
